X:51
T:Golden Keyboard, The
R:reel
C:Martin Mulhaire
D:Matt Molloy & Sean Keane: Contentment is Wealth.
Z:id:hn-reel-51
M:C|
K:Edor
BGEF GFGA|B2gB fBeB|BGEF GBAG|(3FED AD BDAF|
~E3F ~G3A|B2gB fBec|d2dc dBAF|DFAF GEE2:|
|:Be~e2 Beed|Beec dBAc|dA~A2 fA~A2|dfec dBAF|
~E3F GFGA|B2gB fBec|d2dc dBAF|DFAF GEE2:|
P:Variations:
|:~E3F ~G3A|~B3g fgeB|BGEF ~G3B|AF~F2 DEFA|
BGEF ~G3A|~B3g fgec|dfec dBAF|DFAF GEE2:|
|:Beed ~e3f|geed edBc|dA~A2 eA~A2|fedB AFDF|
~E3F GFGA|~B3g fgec|d2dc dBAF|DFAF GEE2:|
<end>
<start>
